src/assets/socialmediaicon.svg

<svg width="56" height="56" viewBox="0 0 56 56" fill="none" xmlns="http://www.w3.org/2000/svg">
<path opacity="0.3" d="M38.7853 13.5757V38.7333C30.012 38.7333 22.9102 31.623 22.9102 22.8581V13.5757H38.7853Z" fill="#B9D7FF"/>
<path d="M39.6763 9.74914V51.6643C39.6763 53.1237 38.4969 54.3031 37.0375 54.3031H15.1466C13.6872 54.3031 12.5078 53.1237 12.5078 51.6643V9.74914C12.5078 8.28975 13.6872 7.11035 15.1466 7.11035H37.0375C38.4969 7.11035 39.6763 8.29823 39.6763 9.74914Z" fill="white"/>
<path opacity="0.3" d="M36.999 46.4996L14.908 46.8389C14.4017 46.8389 13.357 46.3017 12.999 46.8389C12.641 47.3761 12.9989 48.9435 12.9989 49.7032V53.9997L38.999 53.5L39.499 49.4997C39.499 48.74 39.357 47.5368 38.999 46.9997C38.641 46.4625 37.5053 46.4996 36.999 46.4996Z" fill="#FF0000"/>
<path opacity="0.3" d="M54.3047 16.2479L54.3047 2.46777C45.5008 2.46777 42.4259 6.10514 42.4259 12.5907L42.4259 18.6666L51.8579 18.6666C53.2095 18.6763 54.3047 17.584 54.3047 16.2479Z" fill="#FF0000"/>
<path d="M7.89038 33.5483C7.89038 30.655 10.2322 28.3047 13.1255 28.3047C16.0189 28.3047 18.3692 30.6465 18.3692 33.5483H7.89038Z" fill="white"/>
<path d="M15.6635 25.7764C15.6635 27.1764 14.5266 28.3134 13.1266 28.3134C11.7266 28.3134 10.5896 27.1764 10.5896 25.7764C10.5896 24.3764 11.7266 23.2394 13.1266 23.2394C14.5266 23.2394 15.6635 24.3764 15.6635 25.7764ZM24.5048 28.3897V22.1619C24.5048 20.9994 23.5629 20.0576 22.4005 20.0576H11.4211C11.4211 21.0673 12.2357 21.8819 13.2454 21.8819H22.6805V26.5825C22.6805 27.5837 23.4951 28.3897 24.5048 28.3897Z" fill="white"/>
<path d="M31.4965 13.7283H12.5075C12.1596 13.7283 11.8711 13.4398 11.8711 13.0919C11.8711 12.7441 12.1596 12.4556 12.5075 12.4556H31.4965C31.8444 12.4556 32.1329 12.7441 32.1329 13.0919C32.1329 13.4398 31.8529 13.7283 31.4965 13.7283ZM39.6759 47.1077H12.5075C12.1596 47.1077 11.8711 46.8192 11.8711 46.4713C11.8711 46.1234 12.1596 45.835 12.5075 45.835H39.6759C40.0238 45.835 40.3123 46.1234 40.3123 46.4713C40.3123 46.8192 40.0238 47.1077 39.6759 47.1077Z" fill="#B30000"/>
<path d="M37.0391 54.9391H15.1482C13.3409 54.9391 11.873 53.4712 11.873 51.6639L11.8672 37.1364C11.8672 36.7885 12.1557 36.5 12.5036 36.5C12.8514 36.5 13.1399 36.7885 13.1399 37.1364L13.1458 51.6639C13.1458 52.767 14.0452 53.6664 15.1482 53.6664H37.0391C38.1421 53.6664 39.0415 52.767 39.0415 51.6639V18.5C39.0415 18.1521 39.33 17.8636 39.6779 17.8636C40.0258 17.8636 40.3143 18.1521 40.3143 18.5V51.6639C40.3143 53.4712 38.8464 54.9391 37.0391 54.9391ZM12.5094 20.6942C12.1615 20.6942 11.873 20.4058 11.873 20.0579V9.74878C11.873 7.94151 13.3409 6.47363 15.1482 6.47363H31.4985C31.8464 6.47363 32.1349 6.76212 32.1349 7.11C32.1349 7.45788 31.8464 7.74636 31.4985 7.74636H15.1482C14.0452 7.74636 13.1458 8.64575 13.1458 9.74878V20.0494C13.1458 20.4058 12.8658 20.6942 12.5094 20.6942Z" fill="#B30000"/>
<path d="M28.0274 51.0197H24.1498C23.802 51.0197 23.5135 50.7312 23.5135 50.3834C23.5135 50.0355 23.802 49.747 24.1498 49.747H28.0274C28.3753 49.747 28.6638 50.0355 28.6638 50.3834C28.6638 50.7312 28.3838 51.0197 28.0274 51.0197ZM28.9862 10.7337H26.2795C25.9317 10.7337 25.6432 10.4452 25.6432 10.0973C25.6432 9.74942 25.9317 9.46094 26.2795 9.46094H28.9862C29.3341 9.46094 29.6226 9.74942 29.6226 10.0973C29.6226 10.4452 29.3426 10.7337 28.9862 10.7337ZM23.5898 10.7337H23.1911C22.8432 10.7337 22.5547 10.4452 22.5547 10.0973C22.5547 9.74942 22.8432 9.46094 23.1911 9.46094H23.5898C23.9377 9.46094 24.2262 9.74942 24.2262 10.0973C24.2262 10.4452 23.9462 10.7337 23.5898 10.7337Z" fill="#B30000"/>
<path d="M42.3803 3.95L42.3804 3.95L44.3087 3.95C44.4351 3.95 44.5554 4.004 44.6435 4.09878C44.7315 4.19343 44.7804 4.32108 44.7804 4.45349V6.88419C44.7804 7.01659 44.7315 7.14424 44.6435 7.2389C44.5554 7.33368 44.4351 7.38767 44.3087 7.38767L43.1845 7.38767C43.1845 7.38767 43.1845 7.38767 43.1844 7.38767C42.9638 7.38845 42.7516 7.48321 42.5947 7.65255C42.4376 7.82202 42.3488 8.05228 42.3488 8.29302V8.77814H44.5786C44.651 8.77813 44.7222 8.79598 44.7868 8.83013C44.8513 8.86425 44.9074 8.91366 44.9509 8.97427C44.9953 9.03563 45.0259 9.10692 45.0404 9.18257C45.0549 9.25819 45.053 9.33637 45.0349 9.41112C45.0348 9.41119 45.0348 9.41126 45.0348 9.41134L44.4727 11.8293C44.4727 11.8294 44.4727 11.8294 44.4727 11.8294L44.4727 11.8295L44.424 11.8181C44.4015 11.9162 44.3491 12.0034 44.2753 12.0658C44.2014 12.1282 44.1103 12.1624 44.0164 12.1628L42.3803 3.95ZM42.3803 3.95C41.4781 3.95081 40.6139 4.33665 39.9772 5.02146C39.3406 5.70614 38.9831 6.63382 38.9824 7.60066V7.6007V8.73581M42.3803 3.95L38.9824 8.73581M38.9824 8.73581H37.4217C37.2953 8.73581 37.175 8.78981 37.0869 8.88459C36.9989 8.97925 36.95 9.1069 36.95 9.2393V11.7093C36.95 11.8417 36.9989 11.9694 37.0869 12.064C37.175 12.1588 37.2953 12.2128 37.4217 12.2128H38.9824V16.5465C38.9824 16.6789 39.0313 16.8066 39.1193 16.9012C39.2074 16.996 39.3277 17.05 39.4541 17.05H42.0205C42.1469 17.05 42.2672 16.996 42.3553 16.9012C42.4433 16.8066 42.4922 16.6789 42.4922 16.5465V12.2128L38.9824 8.73581ZM42.3804 4.95698H43.8258V6.3686L43.1843 6.3686L43.1842 6.3686C42.711 6.36943 42.2582 6.57222 41.9251 6.93112C41.592 7.28989 41.4055 7.77541 41.4055 8.28093V9.2907C41.4055 9.4231 41.4544 9.55075 41.5424 9.64541C41.6305 9.74019 41.7509 9.79419 41.8772 9.79419H43.9758L43.6451 11.2058H42.0205C41.8942 11.2058 41.7739 11.2598 41.6858 11.3546C41.5978 11.4492 41.5489 11.5769 41.5489 11.7093V16.043H39.9257V11.7093C39.9257 11.5769 39.8768 11.4492 39.7888 11.3546C39.7007 11.2598 39.5804 11.2058 39.4541 11.2058H37.8933V9.74279H39.4541C39.5804 9.74279 39.7007 9.68879 39.7888 9.59401C39.8768 9.49936 39.9257 9.37171 39.9257 9.2393V7.60075C39.9264 6.89869 40.1861 6.22628 40.6467 5.73088C41.1073 5.2356 41.7308 4.95776 42.3804 4.95698Z" fill="#B30000" stroke="#B30000" stroke-width="0.1"/>
<path d="M32.5642 25.1321C32.3436 25.1321 32.1229 25.0896 31.9108 24.9963C31.2745 24.7333 30.8672 24.1224 30.8672 23.4351V3.80115C30.8672 2.29085 32.0975 1.06055 33.6078 1.06055H52.1387C53.649 1.06055 54.8878 2.29085 54.8878 3.80115V16.4945C54.8878 18.0048 53.6575 19.2351 52.1387 19.2351H42.6017C42.2539 19.2351 41.9654 18.9466 41.9654 18.5987C41.9654 18.2509 42.2539 17.9624 42.6017 17.9624H52.1387C52.9532 17.9624 53.6151 17.3005 53.6151 16.4945V3.80115C53.6151 2.98661 52.9532 2.33327 52.1387 2.33327H33.6078C32.7932 2.33327 32.1399 2.99509 32.1399 3.80115V23.4351C32.1399 23.6896 32.3181 23.7915 32.3945 23.8254C32.4708 23.8593 32.6745 23.9102 32.8526 23.7321L38.4357 18.149C38.6817 17.903 39.089 17.903 39.3351 18.149C39.5811 18.3951 39.5811 18.8024 39.3351 19.0484L33.752 24.6315C33.4211 24.9624 32.9969 25.1321 32.5642 25.1321Z" fill="#B30000"/>
<path d="M16.4614 29.8039C17.0324 30.1435 17.1438 30.1182 17.1438 30.4623C17.1438 30.7766 16.3994 31.7946 15.5568 31.7952C14.3234 31.7946 12.976 31.0451 11.918 30.0287C10.8888 28.9839 10.13 27.6531 10.1293 26.435C10.1293 25.6023 11.1607 24.8677 11.479 24.8677C11.8274 24.8677 11.8018 24.9778 12.1457 25.5416C12.3372 25.8553 12.7915 26.4451 12.7054 26.6652C12.5821 26.9786 11.8354 27.347 11.8354 27.5715C11.836 28.3201 13.6481 30.1097 14.406 30.1103C14.6327 30.1096 15.0057 29.3719 15.3237 29.2511C15.5466 29.166 16.1438 29.6148 16.4614 29.8039Z" stroke="#B30000" stroke-width="0.5" stroke-miterlimit="2.613" stroke-linecap="round" stroke-linejoin="round"/>
<path d="M17.8205 24.1556C20.2589 26.564 20.3095 30.4184 17.9335 32.7648C15.864 34.8087 12.636 35.0342 10.2261 33.4666L7.32021 34.6838L8.43229 31.7146C6.80179 29.3289 7.01633 26.1048 9.10313 24.0439C11.4791 21.6974 15.3818 21.7474 17.8205 24.1556ZM17.1438 30.4623C17.1438 30.1182 17.0324 30.1435 16.4614 29.8039C16.1438 29.6148 15.5466 29.166 15.3237 29.2511C15.0057 29.3719 14.6327 30.1096 14.406 30.1103C13.6481 30.1097 11.836 28.3201 11.8354 27.5715C11.8354 27.347 12.5821 26.9786 12.7054 26.6652C12.7915 26.4451 12.3372 25.8553 12.1457 25.5416C11.8018 24.9778 11.8274 24.8677 11.479 24.8677C11.1607 24.8677 10.1293 25.6023 10.1293 26.435C10.13 27.6531 10.8888 28.9839 11.918 30.0287C12.976 31.0451 14.3234 31.7946 15.5568 31.7952C16.3994 31.7946 17.1438 30.7766 17.1438 30.4623Z" stroke="#B30000" stroke-width="0.5" stroke-miterlimit="2.613" stroke-linecap="round" stroke-linejoin="round"/>
<path d="M15.5571 32.1114C14.3299 32.1108 12.9219 31.4343 11.6947 30.2554L11.6885 30.2492C10.4947 29.0373 9.80974 27.6471 9.8091 26.4351C9.8091 25.9888 10.0406 25.5194 10.4608 25.1131C10.75 24.8336 11.1769 24.5515 11.479 24.5515C11.9441 24.5515 12.0678 24.7685 12.2551 25.0971C12.3009 25.1773 12.3528 25.2683 12.42 25.3784C12.4574 25.4398 12.5088 25.5172 12.5633 25.5991C12.9063 26.1156 13.1224 26.4769 13.0041 26.7792C12.9116 27.0144 12.6666 27.2075 12.4297 27.3943C12.3421 27.4634 12.2164 27.5624 12.1607 27.6223C12.2037 27.8585 12.5169 28.3584 13.0632 28.8978C13.6087 29.4366 14.1143 29.7458 14.354 29.7889C14.4144 29.7339 14.514 29.6106 14.5836 29.5246C14.7734 29.2897 14.9697 29.0468 15.2088 28.956C15.2637 28.935 15.3243 28.9243 15.3883 28.9243C15.6609 28.9243 15.9809 29.1179 16.4031 29.3914C16.4861 29.4452 16.5645 29.496 16.6267 29.5331C16.7381 29.5993 16.8302 29.6506 16.9115 29.6958C17.2442 29.8808 17.464 30.003 17.464 30.4623C17.464 30.7605 17.1782 31.1821 16.895 31.4677C16.4836 31.8825 16.0085 32.1111 15.5571 32.1114ZM12.1444 29.8051C13.2361 30.8527 14.5115 31.4784 15.5568 31.479C16.1892 31.4784 16.7906 30.6684 16.8236 30.4567C16.8234 30.4134 16.8208 30.3907 16.819 30.3799C16.7863 30.352 16.6863 30.2963 16.5973 30.2468C16.5164 30.2018 16.4157 30.1459 16.2962 30.0748C16.2234 30.0314 16.1401 29.9775 16.0518 29.9203C15.8863 29.813 15.5536 29.5975 15.4119 29.5614C15.3242 29.622 15.1706 29.812 15.0841 29.9191C14.8643 30.191 14.6746 30.4258 14.4069 30.4266C13.7553 30.426 12.867 29.5986 12.6103 29.345C12.3535 29.0914 11.5157 28.2141 11.5151 27.5718C11.5151 27.306 11.7538 27.1179 12.0301 26.9C12.1381 26.8149 12.3295 26.664 12.391 26.5778C12.3543 26.4377 12.1363 26.1094 12.0277 25.946C11.9699 25.8589 11.9152 25.7766 11.8714 25.7049C11.7993 25.5867 11.7427 25.4873 11.6971 25.4074C11.647 25.3195 11.5906 25.2207 11.5623 25.1885C11.5514 25.1867 11.5284 25.1841 11.4846 25.1839C11.27 25.2165 10.4495 25.8103 10.4495 26.435C10.4501 27.4672 11.0836 28.7268 12.1444 29.8051Z" stroke="#B30000" stroke-width="0.5" stroke-miterlimit="2.613" stroke-linecap="round" stroke-linejoin="round"/>
<path d="M7.32028 35C7.23949 35 7.15992 34.9698 7.09918 34.9125C7.00673 34.8254 6.97557 34.6924 7.01989 34.574L8.07588 31.7547C7.30241 30.5591 6.94035 29.1373 7.05454 27.7322C7.17491 26.2512 7.82202 24.8619 8.87669 23.8203C10.0653 22.6465 11.6567 22 13.3578 22C15.12 22 16.7852 22.6861 18.0469 23.9319C20.6062 26.4598 20.6569 30.5225 18.16 32.9885C16.9715 34.1622 15.3803 34.8085 13.6797 34.8086C12.4468 34.8085 11.2456 34.4682 10.1957 33.8228L7.44523 34.9749C7.40491 34.9918 7.36242 35 7.32028 35ZM10.2261 33.1503C10.2878 33.1503 10.3492 33.1679 10.4022 33.2024C11.3813 33.8393 12.5144 34.176 13.6792 34.1761C15.2089 34.1761 16.6396 33.5955 17.7071 32.5412C19.9543 30.3219 19.9036 26.6604 17.594 24.3792C16.4534 23.2528 14.949 22.6325 13.3578 22.6325C11.8278 22.6325 10.3972 23.2132 9.32956 24.2675C7.39207 26.181 7.12633 29.2385 8.69769 31.5377C8.75539 31.6221 8.76839 31.7288 8.73259 31.8243L7.87773 34.1067L10.101 33.1754C10.1412 33.1586 10.1837 33.1503 10.2261 33.1503Z" stroke="#B30000" stroke-width="0.5" stroke-miterlimit="2.613" stroke-linecap="round" stroke-linejoin="round"/>
<path d="M23.4356 43.4924C23.0028 43.4924 22.5786 43.3227 22.2477 42.9918L16.8513 37.5954H14.3992C14.0513 37.5954 13.7628 37.307 13.7628 36.9591C13.7628 36.6112 14.0513 36.3227 14.3992 36.3227H17.1228C17.2925 36.3227 17.4538 36.3906 17.5725 36.5094L23.1556 42.0924C23.3338 42.2706 23.5374 42.2112 23.6138 42.1857C23.6901 42.1518 23.8683 42.05 23.8683 41.7954V22.1615C23.8683 21.347 23.2065 20.6936 22.4004 20.6936H3.86951C3.05497 20.6936 2.40163 21.3554 2.40163 22.1615V34.8548C2.40163 35.6694 3.06345 36.3227 3.86951 36.3227H10.4198C10.7677 36.3227 11.0562 36.6112 11.0562 36.9591C11.0562 37.307 10.7677 37.5954 10.4198 37.5954H3.86951C2.35921 37.5954 1.12891 36.3651 1.12891 34.8548V22.1615C1.12891 20.6512 2.35921 19.4209 3.86951 19.4209H22.4004C23.9107 19.4209 25.141 20.6512 25.141 22.1615V41.7954C25.141 42.4912 24.7422 43.0936 24.0974 43.3567C23.8768 43.45 23.6562 43.4924 23.4356 43.4924Z" fill="#B30000"/>
</svg>

<svg width="56" height="56" viewBox="0 0 56 56" fill="none" xmlns="http://www.w3.org/2000/svg">
    <g clip-path="url(#gbqbpnpg0a)">
        <path opacity=".3" d="M38.784 13.576v25.157c-8.773 0-15.875-7.11-15.875-15.875v-9.282h15.875z" fill="#B9D7FF"/>
        <path d="M39.675 9.75v41.914c0 1.46-1.18 2.639-2.639 2.639h-21.89a2.636 2.636 0 0 1-2.64-2.639V9.75c0-1.46 1.18-2.639 2.64-2.639h21.89a2.642 2.642 0 0 1 2.64 2.64z" fill="#fff"/>
        <path opacity=".3" d="m37 46.5-22.091.339c-.506 0-1.551-.537-1.909 0-.358.537 0 2.105 0 2.864V54l26-.5.5-4c0-.76-.142-1.963-.5-2.5-.358-.538-1.494-.5-2-.5zM54.303 16.248V2.468c-8.804 0-11.879 3.637-11.879 10.123v6.076h9.432a2.426 2.426 0 0 0 2.447-2.419z" fill="red"/>
        <path d="M7.89 33.548a5.24 5.24 0 1 1 10.48 0H7.89z" fill="#fff"/>
        <path d="M15.663 25.776c0 1.4-1.137 2.537-2.537 2.537a2.538 2.538 0 0 1-2.537-2.537c0-1.4 1.137-2.537 2.537-2.537s2.537 1.137 2.537 2.537zm8.841 2.614v-6.228a2.104 2.104 0 0 0-2.104-2.105H11.42c0 1.01.815 1.825 1.825 1.825h9.435v4.7c0 1.002.814 1.808 1.824 1.808z" fill="#fff"/>
        <path d="M12.507 13.828h18.989a.735.735 0 1 0 0-1.472h-18.99a.741.741 0 0 0-.736.736c0 .403.333.736.737.736zm0 33.38h27.168a.741.741 0 0 0 .736-.737.74.74 0 0 0-.736-.736H12.507a.741.741 0 0 0-.737.736c0 .403.333.737.737.737z" fill="#004498" stroke="#004498" stroke-width=".2"/>
        <path d="m11.764 37.137.006 14.527a3.377 3.377 0 0 0 3.375 3.375h21.891a3.377 3.377 0 0 0 3.375-3.375V18.5a.741.741 0 0 0-.736-.736.741.741 0 0 0-.736.736v33.164a1.906 1.906 0 0 1-1.903 1.903h-21.89a1.906 1.906 0 0 1-1.903-1.903l-.006-14.527a.741.741 0 0 0-.736-.737.74.74 0 0 0-.737.737zm.006-17.079c0 .403.333.737.737.737a.737.737 0 0 0 .736-.745V9.75c0-1.049.854-1.903 1.902-1.903h16.35a.74.74 0 0 0 .737-.737.74.74 0 0 0-.736-.736h-16.35a3.377 3.377 0 0 0-3.376 3.375v10.31z" fill="#004498" stroke="#004498" stroke-width=".2"/>
        <path d="M24.147 51.12h3.878a.735.735 0 1 0 0-1.473h-3.878a.741.741 0 0 0-.736.736c0 .403.333.737.736.737zm2.13-40.286h2.707a.735.735 0 1 0 0-1.473h-2.707a.741.741 0 0 0-.736.736c0 .404.333.737.736.737zm-3.088 0h.398a.735.735 0 1 0 0-1.473h-.398a.741.741 0 0 0-.737.736c0 .404.333.737.737.737z" fill="#004498" stroke="#004498" stroke-width=".2"/>
        <path d="M42.38 3.95h1.93c.126 0 .246.054.334.149a.521.521 0 0 1 .137.355v2.43c0 .133-.049.26-.137.355a.457.457 0 0 1-.335.149h-1.124a.808.808 0 0 0-.59.265.943.943 0 0 0-.246.64v.485h2.23c.072 0 .144.018.208.052.065.034.12.084.164.144a.524.524 0 0 1 .084.437l-.562 2.418-.048-.01a.458.458 0 0 1-.15.247.404.404 0 0 1-.258.097L42.38 3.95zm0 0c-.901.001-1.766.387-2.402 1.072a3.796 3.796 0 0 0-.995 2.579v1.135M42.38 3.95l-3.398 4.786m0 0h-1.56a.457.457 0 0 0-.336.149.522.522 0 0 0-.137.354v2.47c0 .133.05.26.137.355a.457.457 0 0 0 .335.149h1.56v4.334c0 .132.05.26.138.354a.457.457 0 0 0 .335.15h2.566a.457.457 0 0 0 .335-.15.521.521 0 0 0 .137-.354v-4.334l-3.51-3.477zm3.398-3.779h1.445V6.37h-.641c-.474 0-.926.203-1.26.562-.332.36-.519.845-.519 1.35v1.01c0 .132.049.26.137.355a.457.457 0 0 0 .335.148h2.098l-.33 1.412H42.02a.457.457 0 0 0-.335.149.521.521 0 0 0-.137.354v4.334h-1.623V11.71a.521.521 0 0 0-.137-.355.457.457 0 0 0-.334-.149h-1.561V9.743h1.56a.457.457 0 0 0 .335-.149.522.522 0 0 0 .137-.355V7.601c0-.702.26-1.375.721-1.87a2.372 2.372 0 0 1 1.734-.774z" fill="#004498" stroke="#004498" stroke-width=".1"/>
        <path d="M31.872 25.088c.225.1.459.144.692.144.46 0 .91-.18 1.259-.53l5.583-5.583a.74.74 0 0 0 0-1.04.74.74 0 0 0-1.041 0l-5.583 5.582a.307.307 0 0 1-.347.073.31.31 0 0 1-.195-.299V3.801c0-.75.609-1.368 1.368-1.368h18.53c.76 0 1.377.61 1.377 1.368v12.694c0 .75-.617 1.367-1.376 1.367h-9.537a.741.741 0 0 0-.737.737c0 .403.334.736.737.736h9.537a2.847 2.847 0 0 0 2.849-2.84V3.8a2.852 2.852 0 0 0-2.85-2.84h-18.53a2.845 2.845 0 0 0-2.84 2.84v19.634a1.78 1.78 0 0 0 1.104 1.654z" fill="#004498" stroke="#004498" stroke-width=".2"/>
        <path d="M16.462 29.804c.57.34.682.314.682.658 0 .315-.744 1.333-1.587 1.333-1.233 0-2.58-.75-3.639-1.766-1.029-1.045-1.788-2.376-1.788-3.594 0-.833 1.031-1.567 1.35-1.567.348 0 .322.11.666.674.192.313.646.903.56 1.123-.123.314-.87.682-.87.907 0 .748 1.813 2.538 2.57 2.538.227 0 .6-.738.918-.859.223-.085.82.364 1.138.553z" stroke="#004498" stroke-width=".5" stroke-miterlimit="2.613" stroke-linecap="round" stroke-linejoin="round"/>
        <path d="M17.821 24.156c2.438 2.408 2.489 6.262.113 8.609-2.07 2.044-5.298 2.27-7.707.702L7.32 34.684l1.112-2.97c-1.63-2.385-1.416-5.61.67-7.67 2.377-2.347 6.28-2.297 8.718.112zm-.677 6.306c0-.344-.111-.319-.682-.658-.318-.19-.915-.638-1.138-.553-.318.12-.69.859-.918.86-.758-.001-2.57-1.79-2.57-2.54 0-.224.747-.592.87-.906.086-.22-.368-.81-.56-1.123-.344-.564-.318-.674-.667-.674-.318 0-1.35.734-1.35 1.567.001 1.218.76 2.549 1.79 3.594 1.057 1.016 2.405 1.766 3.638 1.766.843 0 1.587-1.018 1.587-1.333z" stroke="#004498" stroke-width=".5" stroke-miterlimit="2.613" stroke-linecap="round" stroke-linejoin="round"/>
        <path d="M15.558 32.111c-1.228 0-2.636-.677-3.863-1.856l-.006-.006c-1.194-1.212-1.879-2.602-1.88-3.814 0-.446.232-.916.652-1.322.29-.28.716-.561 1.018-.561.466 0 .59.216.777.545.045.08.097.171.164.281.038.062.09.14.144.221.343.517.559.878.44 1.18-.092.235-.337.428-.574.615-.088.07-.213.168-.269.228.043.236.356.736.903 1.276.545.539 1.05.848 1.29.89.06-.054.16-.177.23-.263.19-.235.386-.478.625-.569a.501.501 0 0 1 .18-.032c.272 0 .592.194 1.015.467.083.054.161.105.223.142.112.066.204.118.285.163.333.185.553.307.553.766 0 .299-.286.72-.57 1.006-.41.415-.886.643-1.337.643zm-3.413-2.306c1.092 1.048 2.367 1.673 3.412 1.674.633 0 1.234-.81 1.267-1.022a.484.484 0 0 0-.005-.077 2.056 2.056 0 0 0-.221-.133c-.081-.045-.182-.101-.301-.172a8.216 8.216 0 0 1-.245-.155c-.165-.107-.498-.323-.64-.359-.087.061-.24.251-.328.358-.22.272-.409.507-.677.508-.651-.001-1.54-.828-1.796-1.082-.257-.254-1.095-1.13-1.095-1.773 0-.266.238-.454.515-.672.108-.085.299-.236.36-.322-.036-.14-.254-.469-.363-.632-.058-.087-.112-.17-.156-.241a10.927 10.927 0 0 1-.174-.298 2.01 2.01 0 0 0-.135-.218.514.514 0 0 0-.078-.005c-.214.032-1.035.626-1.035 1.251 0 1.032.634 2.292 1.695 3.37z" stroke="#004498" stroke-width=".5" stroke-miterlimit="2.613" stroke-linecap="round" stroke-linejoin="round"/>
        <path d="M7.32 35c-.08 0-.16-.03-.22-.087a.313.313 0 0 1-.08-.339l1.056-2.82a6.467 6.467 0 0 1-1.021-4.022 6.206 6.206 0 0 1 1.822-3.912A6.33 6.33 0 0 1 13.358 22c1.762 0 3.428.686 4.69 1.932 2.559 2.528 2.61 6.59.112 9.057a6.33 6.33 0 0 1-4.48 1.82 6.642 6.642 0 0 1-3.484-.986l-2.75 1.152A.323.323 0 0 1 7.32 35zm2.907-1.85c.061 0 .123.018.176.052.979.637 2.112.974 3.277.974 1.53 0 2.96-.58 4.028-1.635 2.247-2.22 2.196-5.88-.113-8.162a5.997 5.997 0 0 0-4.237-1.747c-1.53 0-2.96.581-4.028 1.635-1.937 1.914-2.203 4.971-.632 7.27.058.085.07.192.035.287l-.855 2.283 2.223-.932a.324.324 0 0 1 .126-.025z" stroke="#004498" stroke-width=".5" stroke-miterlimit="2.613" stroke-linecap="round" stroke-linejoin="round"/>
        <path d="M22.175 43.063a1.772 1.772 0 0 0 1.96.386 1.76 1.76 0 0 0 1.105-1.654V22.161a2.845 2.845 0 0 0-2.841-2.84H3.869a2.845 2.845 0 0 0-2.842 2.84v12.694a2.845 2.845 0 0 0 2.841 2.84h6.55a.74.74 0 0 0 .737-.736.741.741 0 0 0-.737-.736h-6.55A1.368 1.368 0 0 1 2.5 34.855V22.162c0-.752.61-1.368 1.368-1.368H22.4c.751 0 1.368.609 1.368 1.367v19.634c0 .19-.126.268-.191.297-.073.024-.22.061-.351-.07l-5.583-5.583a.735.735 0 0 0-.52-.216h-2.724a.741.741 0 0 0-.737.736.74.74 0 0 0 .737.736h2.41l5.367 5.367z" fill="#004498" stroke="#004498" stroke-width=".2"/>
    </g>
    <defs>
        <clipPath id="gbqbpnpg0a">
            <path fill="#fff" d="M0 0h56v56H0z"/>
        </clipPath>
    </defs>
</svg>
